X:1
T:Title
%%score { ( 1 4 ) | ( 2 3 ) }
L:1/8
M:6/8
K:Ab
V:1 treble nm="Grand Piano"
V:4 treble 
V:2 bass 
V:3 bass 
V:1
 z3 z2[Q:1/4=92] [CE] | [CE]2 [CA] [EA]2 B | c2 c c2 d | e2 c [EA][DG][CA] | B2 c B2 E | %5
 [CE]2 [CA] [EA]2 B | c2 c c2 d | e2 e ec[B,=DA] | [CEA]2 [DEB] [CEA]3 | [Ec]2 [Ec] [Ec][DB][CA] | %10
 E6 | z3 B3 | A2 B [Ec]3 | [Ec]2 [Ec] [Ec][DB][CA] | E6 | z A2 z B2 |[M:5/8] A-A- A3 |] %17
V:2
 z3 z2 [A,,A,] | [A,,A,]2 [A,,A,] [C,A,]2 [E,G,E] | [A,E]2 [A,E] [A,E]2 [A,B,E] | %3
 [A,CE]2 [A,E] [C,A,][B,,E,][A,,A,] | [E,G,E]2 [E,A,E] [E,G,E]2 [E,G,D] | %5
 [A,,A,]2 [A,,A,] [C,A,]2 [E,G,E] | [A,E]2 [A,E] [A,E]2 [A,B,E] | %7
 [A,CA]2 [B,DG][K:bass] E-[A,E]F, | E,2 E, A,,3 | [A,,A,]2 [A,,A,] [A,,A,][A,,A,][A,,A,] | %10
 [A,,A,]2 [A,,A,] .[A,,A,]3 | [E,G,D]2 [E,G,D] .[E,G,D]2 E, | [A,C]2 [E,G,D] [A,,A,]3 | %13
 [A,,A,]2 [A,,A,] [A,,A,][A,,A,].[A,,A,] | [A,,A,]2 [A,,A,] .[A,,A,]3 | .D3 z3 | %16
[M:5/8] A,,2 A,, A,,2 |] %17
V:3
 x6 | x6 | x6 | x6 | x6 | x6 | x6 | z3[K:bass] .[A,C]3 | x6 | x6 | x6 | x6 | x6 | x6 | x6 | %15
 [D,A,]-[D,A,F][D,D] [E,DE]2 E, |[M:5/8] x5 |] %17
V:4
 x6 | x6 | x6 | x6 | x6 | x6 | x6 | x6 | x6 | x6 | C2 C .C3 | E2 B z DG, | x6 | x6 | C2 C .C3 | %15
 .F2 F .G2 [DE] |[M:5/8] [CE]2 [DF] [CE]2 |] %17

